assets/svg/icon_block_share.svg

<svg width="24" height="24" viewBox="0 0 24 24" fill="none" xmlns="http://www.w3.org/2000/svg">
<path d="M11.9969 21C7.94948 21 6.03137 20.7739 4.6287 19.3708C3.22604 17.9677 3 16.0491 3 12.0004C3 7.95174 3.22604 6.03307 4.6287 4.62998C5.80323 3.45511 7.29461 3.03038 10.3281 3.00502H10.3344C10.7105 3.00502 11.0168 3.30931 11.021 3.68544C11.0231 4.06368 10.7189 4.3743 10.3408 4.37852C7.68753 4.40177 6.49188 4.71028 5.60043 5.602C4.63715 6.56556 4.37309 7.94118 4.37309 12.0004C4.37309 16.0596 4.63715 17.4352 5.60043 18.3988C6.5637 19.3624 7.93892 19.6265 11.9969 19.6265C16.0549 19.6265 17.4301 19.3624 18.3934 18.3988C19.2849 17.5071 19.5933 16.3111 19.6165 13.6571C19.6208 13.2788 19.9271 12.9766 20.3031 12.9766H20.3094C20.6875 12.9809 20.9939 13.2894 20.9896 13.6697C20.9643 16.7041 20.5376 18.1981 19.3652 19.3708C17.9625 20.7739 16.0444 21 11.9969 21Z" fill="#5A5E66"/>
<path d="M15.5227 13.0239C14.3967 14.1565 12.8377 14.8031 11.2407 14.7968C10.852 14.7968 10.5352 14.4777 10.5352 14.0889C10.5352 13.8987 10.6091 13.7233 10.7422 13.5902C10.8753 13.4571 11.0527 13.3831 11.2407 13.3831C12.466 13.3853 13.6616 12.8908 14.5256 12.0223C15.3896 11.1623 15.886 9.97052 15.886 8.75127V5.36823L13.4144 7.84053C13.2814 7.97366 13.1039 8.04762 12.9159 8.04762C12.7279 8.04762 12.5505 7.97577 12.4174 7.84265C12.2822 7.70741 12.2082 7.52991 12.2082 7.34185C12.2082 7.15167 12.2822 6.97629 12.4131 6.84316L16.0508 3.20444C16.3275 2.93185 16.7754 2.93185 17.0521 3.20444L20.7932 6.9467C21.07 7.2214 21.0679 7.67149 20.7932 7.9483C20.5186 8.223 20.0708 8.22511 19.7962 7.9483L17.2992 5.45064V8.73648C17.2992 10.353 16.6697 11.8744 15.5248 13.0197L15.5227 13.0239Z" fill="#5A5E66"/>
</svg>

<svg xmlns="http://www.w3.org/2000/svg" width="24" height="24" fill="none"><path fill="#5A5E66" d="M11.997 21c-4.048 0-5.966-.226-7.368-1.63C3.226 17.969 3 16.05 3 12c0-4.048.226-5.967 1.629-7.37 1.174-1.175 2.666-1.6 5.7-1.625h.005a.688.688 0 0 1 .007 1.374c-2.653.023-3.85.331-4.74 1.223-.964.964-1.228 2.34-1.228 6.398 0 4.06.264 5.435 1.227 6.399.964.963 2.339 1.227 6.397 1.227s5.433-.264 6.396-1.227c.892-.892 1.2-2.088 1.223-4.742a.687.687 0 0 1 .687-.68h.006a.687.687 0 0 1 .68.693c-.025 3.034-.451 4.528-1.624 5.7-1.402 1.404-3.32 1.63-7.368 1.63"/><path fill="#5A5E66" d="M15.523 13.024a6.04 6.04 0 0 1-4.282 1.773.709.709 0 0 1-.499-1.207.7.7 0 0 1 .499-.207 4.647 4.647 0 0 0 4.645-4.632V5.368l-2.472 2.473a.7.7 0 0 1-.498.207.704.704 0 0 1-.503-1.204l3.638-3.64a.715.715 0 0 1 1.001 0l3.741 3.743a.71.71 0 0 1 0 1.001.704.704 0 0 1-.997 0L17.3 5.451v3.285a6.02 6.02 0 0 1-1.774 4.284z"/></svg>
